X: 5859
T: Calliope House
R: jig
M: 6/8
K: Emajor
b2 b gbg|fgf efg|a2 a gag|fgf e2 c|
BcB B2 G|B2 c e2 f|g2 g gfe|f2 f fga|
b2 b gbg|fgf efg|a2 a gag|fgf e2 c|
BcB B2G|B2 c e2 f|gag fgf|e2 e Bcd||
eBB gBB|eBB gfe|cff f2 e|cff fec|
BcB B2 G|B2 c e2 f|g2 g gfe|f2 f Bcd|
eBB gBB|eBB gfe|cff f2 e|cff fec|
BcB B2 G|B2 c e2 f|g2 g fgf|e2 e ega||

